X: 1
T: The Boys Lament For His Dragon
C: William Mackay
O: Scottish
M: C|
L: 1/8
Q: 1/2=76
R: march
K: D
A<B|A2d2 d2(ef)|g>f e<d f4|(g2B2) B2(cd)|e>f e<c A2A<B|
(A2d2) d2(ef)|g>f e<d f4|(g2B2) f>e d<c|d4 d2:|
f<g|a2A2 A2((3AB=c)|B2G2 A2A<B|(A2d2) A2d2|e>d c<B A2f<g|
a2A2 A2((3AB=c)|B2G2 A2A<B|(A2d2) f>e d<c|d4 d2:|
